pro/src/icons/stroke-venue.svg

<svg width="48" height="48" viewBox="0 0 48 48" fill="none" xmlns="http://www.w3.org/2000/svg">
<path id="icon" fill-rule="evenodd" clip-rule="evenodd" d="M24.4472 4.10557C24.1657 3.96481 23.8343 3.96481 23.5528 4.10557L4.55279 13.6056C4.214 13.775 4 14.1212 4 14.5V43C4 43.5523 4.44772 44 5 44H17H24H31H43C43.5523 44 44 43.5523 44 43V38.75C44 38.1977 43.5523 37.75 43 37.75C42.4477 37.75 42 38.1977 42 38.75V42H31.99V29.95C31.99 28.8846 31.1291 28 30.04 28H24H17.95C16.8846 28 16 28.8609 16 29.95V42H6V15.118L24 6.11803L42 15.118V33.75C42 34.3023 42.4477 34.75 43 34.75C43.5523 34.75 44 34.3023 44 33.75V14.5C44 14.1212 43.786 13.775 43.4472 13.6056L24.4472 4.10557ZM23 30H18V42H23V30ZM25 42V30H29.99V42H25ZM12 17C12 16.4477 12.4477 16 13 16H35C35.5523 16 36 16.4477 36 17V22C36 22.5523 35.5523 23 35 23H23C22.4477 23 22 22.5523 22 22C22 21.4477 22.4477 21 23 21H34V18H14V21H16C16.5523 21 17 21.4477 17 22C17 22.5523 16.5523 23 16 23H13C12.4477 23 12 22.5523 12 22V17Z" fill="currentColor"/>
</svg>

<svg xmlns="http://www.w3.org/2000/svg" width="48" height="48" fill="none"><path id="icon" fill="currentColor" fill-rule="evenodd" d="M24.447 4.106a1 1 0 0 0-.894 0l-19 9.5A1 1 0 0 0 4 14.5V43a1 1 0 0 0 1 1h38a1 1 0 0 0 1-1v-4.25a1 1 0 1 0-2 0V42H31.99V29.95A1.95 1.95 0 0 0 30.04 28H17.95A1.95 1.95 0 0 0 16 29.95V42H6V15.118l18-9 18 9V33.75a1 1 0 1 0 2 0V14.5a1 1 0 0 0-.553-.894zM23 30h-5v12h5zm2 12V30h4.99v12zM12 17a1 1 0 0 1 1-1h22a1 1 0 0 1 1 1v5a1 1 0 0 1-1 1H23a1 1 0 1 1 0-2h11v-3H14v3h2a1 1 0 1 1 0 2h-3a1 1 0 0 1-1-1z" clip-rule="evenodd"/></svg>
